X: 1
T: Drunken Landlady, The
M: 4/4
L: 1/8
K:Ador
|eA"Am" !roll!A2 edBd|eA !roll!A2 edBd|"G"dedB G2BG|"Em"Bd d2 edBd|
eA"Am"!rollA2 edBd|eA!roll!A2 edBd|"G"d2ef gbaf|gedB"Am" A4:|]
|e"Am7"aag a2ga|"Em"b2gb abge|"G"dedB G2BG|"Em"Bd d2 edBd|
e"Am"aag a2ga|"Em"b2gb abge|"G"d2ef gbaf|gedB "Am"A4:|]

